svg/u2694.svg

<svg viewBox="0 0 128 128" xmlns="http://www.w3.org/2000/svg">
  <g>
    <g>
      <path d="M16.84,28.01C7.08,18.25,3.55,3.55,3.55,3.55l92.61,92.61l-5.59,5.59 C90.57,101.74,26.6,37.77,16.84,28.01z" fill="#82AEC0"/>
      <path d="M28.01,16.84C18.25,7.08,3.55,3.55,3.55,3.55l92.61,92.61l5.59-5.59 C101.75,90.57,37.77,26.6,28.01,16.84z" fill="#C9E3E6"/>
      <polygon points="98.09,98.08 102.47,93.7 117.4,110.88 115.81,115.81 110.88,117.4 93.7,102.47 " fill="#874D36"/>
      <path d="M98.09,98.08l4.39-4.39l14.93,17.18c0,0,1.43,1.9-1.59,4.92c-3.02,3.02-4.92,1.59-4.92,1.59 L93.7,102.47L98.09,98.08z" fill="#693928"/>
      <g>
        <path d="M111.41,113.63c-0.24,0.15-1.15,0.59-2.27-0.37c-0.63-0.54-0.7-1.14,0.01-1.57 c1.56-0.95,3.56-3.44,4.42-5.17l2.09,2.41C114.57,110.77,113.2,112.54,111.41,113.63z" fill="#A65F3E"/>
        <path d="M107.06,108.4c-0.24,0.15-1.35,0.73-2.19,0.23c-1.19-0.71-0.98-1.61-0.27-2.04 c1.56-0.95,3.79-3.28,4.77-4.92l2.05,2.36C110.16,105.83,108.8,107.34,107.06,108.4z" fill="#A65F3E"/>
        <path d="M101.66,104.59c-0.24,0.15-1.19,0.4-2.15-0.27c-0.62-0.44-0.83-1.43-0.12-1.86 c1.79-1.08,4.41-3.83,5.62-5.78l2.04,2.35C105.55,101.21,103.34,103.56,101.66,104.59z" fill="#A65F3E"/>
      </g>
      <path d="M110.48,120.5l0.4-3.1c0,0,1.55,0.01,4.04-2.48c2.49-2.49,2.48-4.04,2.48-4.04l3.1-0.4 c2.28-0.4,4.24,1.64,3.92,3.91c-0.31,2.13-1.5,4.54-3.49,6.54c-1.99,1.99-4.4,3.18-6.54,3.49 C112.13,124.74,110.19,122.77,110.48,120.5z" fill="#9E740B"/>
      <path d="M78.37,112.24l10.5-12.84l5.27-5.27l5.27-5.27l12.84-10.5c0.62-0.52,1.53-0.48,2.11,0.09 c0.58,0.58,0.61,1.52,0.06,2.14c-2.78,3.1-8.38,9.59-10.89,12.26c-1.76,1.88-3.6,3.75-5.26,5.4c-1.65,1.65-3.53,3.49-5.4,5.26 c-2.67,2.51-9.16,8.11-12.26,10.89c-0.62,0.55-1.55,0.52-2.14-0.06C77.88,113.77,77.85,112.86,78.37,112.24z" fill="#9E740B"/>
    </g>
    <g>
      <path d="M111.16,28.01c9.76-9.76,13.29-24.46,13.29-24.46L31.84,96.16l5.59,5.59 C37.43,101.74,101.4,37.77,111.16,28.01z" fill="#82AEC0"/>
      <path d="M99.99,16.84c9.76-9.76,24.46-13.29,24.46-13.29L31.84,96.16l-5.59-5.59 C26.25,90.57,90.23,26.6,99.99,16.84z" fill="#C9E3E6"/>
      <polygon points="29.91,98.08 25.53,93.7 10.6,110.88 12.19,115.81 17.12,117.4 34.3,102.47 " fill="#874D36"/>
      <path d="M29.91,98.08l-4.39-4.39L10.6,110.88c0,0-1.54,1.79,1.59,4.92s4.92,1.59,4.92,1.59l17.18-14.93 L29.91,98.08z" fill="#693928"/>
      <path d="M17.52,120.5l-0.4-3.1c0,0-1.55,0.01-4.04-2.48s-2.48-4.04-2.48-4.04l-3.1-0.4 c-2.27-0.29-4.24,1.64-3.92,3.91c0.31,2.13,1.5,4.54,3.49,6.54c1.99,1.99,4.4,3.18,6.54,3.49 C15.87,124.74,17.81,122.77,17.52,120.5z" fill="#9E740B"/>
      <path d="M49.63,112.24L39.13,99.4l-5.27-5.27l-5.27-5.27l-12.84-10.5c-0.62-0.52-1.53-0.48-2.11,0.09 c-0.58,0.58-0.61,1.52-0.06,2.14c2.78,3.1,8.38,9.59,10.89,12.26c1.76,1.88,3.6,3.75,5.26,5.4c1.65,1.65,3.53,3.49,5.4,5.26 c2.67,2.51,9.16,8.11,12.26,10.89c0.62,0.55,1.55,0.52,2.14-0.06C50.12,113.77,50.15,112.86,49.63,112.24z" fill="#9E740B"/>
      <path d="M5.1,113.86c0.26,1.02,0.95,2.85,2.86,4.36c2,1.58,3.16,0.38,2.26-1.44 c-0.73-1.46-1.28-2.19-2.37-4.13C6.82,110.82,4.61,111.9,5.1,113.86z" fill="#E2A610"/>
      <path d="M17.47,82.68c-0.86-1.01,0.49-1.36,2.51,0.36c2.02,1.72,10.52,8.98,10.52,8.98 c2.73,2.48,1.35,5.04,1.35,5.04C29.64,95.31,18.33,83.69,17.47,82.68z" fill="#E2A610"/>
      <g>
        <path d="M16.55,113.63c0.24,0.15,1.15,0.59,2.27-0.37c0.63-0.54,0.7-1.14-0.01-1.57 c-1.56-0.95-3.56-3.44-4.42-5.17l-2.09,2.41C13.4,110.77,14.76,112.54,16.55,113.63z" fill="#A65F3E"/>
        <path d="M20.91,108.4c0.24,0.15,1.35,0.73,2.19,0.23c1.19-0.71,0.98-1.61,0.27-2.04 c-1.56-0.95-3.79-3.28-4.77-4.92l-2.05,2.36C17.8,105.83,19.17,107.34,20.91,108.4z" fill="#A65F3E"/>
        <path d="M26.3,104.59c0.24,0.15,1.19,0.4,2.15-0.27c0.62-0.44,0.83-1.43,0.12-1.86 c-1.79-1.08-4.41-3.83-5.62-5.78l-2.04,2.35C22.41,101.21,24.62,103.56,26.3,104.59z" fill="#A65F3E"/>
      </g>
    </g>
    <polygon points="64,75.17 69.57,80.75 78.93,67.76 75.17,64 " fill="#2F7889"/>
    <path d="M102.26,87.83c-1.88,1.56,1.47,2.07,3.81-0.29l4.7-4.67c1.17-1.19,1.17-3.23-1-1.53L102.26,87.83z" fill="#E2A610"/>
  </g>
  <path d="M118.75,114.94c-0.67,1.04-0.38,2.07,0.71,2.08c0.78,0.01,1.62-0.57,2.01-0.96 c0.57-0.57,0.98-1.03,1.26-2.2c0.37-1.57-1.33-3.15-2.33-1.64C119.51,113.56,119.42,113.91,118.75,114.94z" fill="#E2A610"/>
  <path d="M5.1,114.91" fill="#E2A610"/>
  <g>
    <g>
      <path d="M157.2,21.54c-9.76-9.76-13.29-24.46-13.29-24.46l92.61,92.61l-5.59,5.59 C230.93,95.27,166.96,31.3,157.2,21.54z" fill="#82AEC0"/>
      <path d="M168.37,10.37C158.61,0.61,143.9-2.92,143.9-2.92l92.61,92.61l5.59-5.59 C242.1,84.1,178.13,20.13,168.37,10.37z" fill="#C9E3E6"/>
      <polygon points="238.44,91.61 242.82,87.23 257.76,104.41 256.16,109.33 251.24,110.93 234.05,96 " fill="#874D36"/>
      <path d="M238.44,91.61l4.39-4.39l14.93,17.18c0,0,1.43,1.9-1.59,4.92c-3.02,3.02-4.92,1.59-4.92,1.59 L234.05,96L238.44,91.61z" fill="#693928"/>
      <g>
        <path d="M251.76,107.16c-0.24,0.15-1.15,0.59-2.27-0.37c-0.63-0.54-0.7-1.14,0.01-1.57 c1.56-0.95,3.56-3.44,4.42-5.17l2.09,2.41C254.92,104.29,253.56,106.06,251.76,107.16z" fill="#A65F3E"/>
        <path d="M247.41,101.93c-0.24,0.15-1.35,0.73-2.19,0.23c-1.19-0.71-0.98-1.61-0.27-2.04 c1.56-0.95,3.79-3.28,4.77-4.92l2.05,2.36C250.51,99.36,249.15,100.87,247.41,101.93z" fill="#A65F3E"/>
        <path d="M242.02,98.11c-0.24,0.15-1.19,0.4-2.15-0.27c-0.62-0.44-0.83-1.43-0.12-1.86 c1.79-1.08,4.41-3.83,5.62-5.78l2.04,2.35C245.91,94.74,243.7,97.09,242.02,98.11z" fill="#A65F3E"/>
      </g>
      <path d="M250.84,114.03l0.4-3.1c0,0,1.55,0.01,4.04-2.48c2.49-2.49,2.48-4.04,2.48-4.04l3.1-0.4 c2.27-0.29,4.24,1.64,3.92,3.91c-0.31,2.13-1.5,4.54-3.49,6.54c-1.99,1.99-4.4,3.18-6.54,3.49 C252.48,118.27,250.55,116.3,250.84,114.03z" fill="#9E740B"/>
      <path d="M218.72,105.77l10.5-12.84l5.27-5.27l5.27-5.27l12.84-10.5c0.62-0.52,1.53-0.48,2.11,0.09 c0.58,0.58,0.61,1.52,0.06,2.14c-2.78,3.1-8.38,9.59-10.89,12.26c-1.76,1.88-3.6,3.75-5.26,5.4c-1.65,1.65-3.53,3.49-5.4,5.26 c-2.67,2.51-9.16,8.11-12.26,10.89c-0.62,0.55-1.55,0.52-2.14-0.06C218.24,107.3,218.2,106.38,218.72,105.77z" fill="#9E740B"/>
    </g>
    <g>
      <path d="M251.51,21.54c9.76-9.76,13.29-24.46,13.29-24.46L172.2,89.69l5.59,5.59 C177.78,95.27,241.75,31.3,251.51,21.54z" fill="#82AEC0"/>
      <path d="M240.34,10.37C250.1,0.61,264.8-2.92,264.8-2.92L172.2,89.69l-5.59-5.59 C166.61,84.1,230.58,20.13,240.34,10.37z" fill="#C9E3E6"/>
      <polygon points="170.27,91.61 165.88,87.23 150.95,104.41 152.55,109.33 157.47,110.93 174.65,96 " fill="#874D36"/>
      <path d="M170.27,91.61l-4.39-4.39l-14.93,17.18c0,0-1.54,1.79,1.59,4.92c3.13,3.13,4.92,1.59,4.92,1.59 L174.65,96L170.27,91.61z" fill="#693928"/>
      <path d="M157.87,114.03l-0.4-3.1c0,0-1.55,0.01-4.04-2.48c-2.49-2.49-2.48-4.04-2.48-4.04l-3.1-0.4 c-2.27-0.29-4.24,1.64-3.92,3.91c0.31,2.13,1.5,4.54,3.49,6.54c1.99,1.99,4.4,3.18,6.54,3.49 C156.23,118.27,158.16,116.3,157.87,114.03z" fill="#9E740B"/>
      <path d="M189.99,105.77l-10.5-12.84l-5.27-5.27l-5.27-5.27l-12.84-10.5c-0.62-0.52-1.53-0.48-2.11,0.09 c-0.58,0.58-0.61,1.52-0.06,2.14c2.78,3.1,8.38,9.59,10.89,12.26c1.76,1.88,3.6,3.75,5.26,5.4c1.65,1.65,3.53,3.49,5.4,5.26 c2.67,2.51,9.16,8.11,12.26,10.89c0.62,0.55,1.55,0.52,2.14-0.06C190.47,107.3,190.51,106.38,189.99,105.77z" fill="#9E740B"/>
      <path d="M144.96,107.28c0.05,0.3,0.15,0.62,0.33,0.9c0.17,0.26,0.41,0.48,0.66,0.66 c2.43,1.78,5.16-0.07,3.12-2.72C147.45,104.02,144.61,104.95,144.96,107.28z" fill="#E2A610"/>
      <path d="M157.82,76.2c-0.86-1.01,0.49-1.36,2.51,0.36c2.02,1.72,10.52,8.98,10.52,8.98 c2.73,2.48,1.35,5.04,1.35,5.04C169.99,88.83,158.69,77.21,157.82,76.2z" fill="#E2A610"/>
      <g>
        <path d="M156.91,107.16c0.24,0.15,1.15,0.59,2.27-0.37c0.63-0.54,0.7-1.14-0.01-1.57 c-1.56-0.95-3.56-3.44-4.42-5.17l-2.09,2.41C153.75,104.29,155.11,106.06,156.91,107.16z" fill="#A65F3E"/>
        <path d="M161.26,101.93c0.24,0.15,1.35,0.73,2.19,0.23c1.19-0.71,0.98-1.61,0.27-2.04 c-1.56-0.95-3.79-3.28-4.77-4.92l-2.05,2.36C158.16,99.36,159.52,100.87,161.26,101.93z" fill="#A65F3E"/>
        <path d="M166.65,98.11c0.24,0.15,1.19,0.4,2.15-0.27c0.62-0.44,0.83-1.43,0.12-1.86 c-1.79-1.08-4.41-3.83-5.62-5.78l-2.04,2.35C162.76,94.74,164.97,97.09,166.65,98.11z" fill="#A65F3E"/>
      </g>
    </g>
    <polygon points="204.35,68.7 209.93,74.27 219.29,61.29 215.53,57.53 " fill="#2F7889"/>
    <path d="M242.61,81.35c-1.88,1.56,1.47,2.07,3.81-0.29l4.7-4.67c1.17-1.19,1.17-3.23-1-1.53L242.61,81.35z" fill="#E2A610"/>
  </g>
</svg>

<svg viewBox="0 0 128 128" xmlns="http://www.w3.org/2000/svg">
  <defs/>
  <path d="M16.84,28.01 C7.08,18.25 3.55,3.55 3.55,3.55 L96.16,96.16 L90.57,101.75 C90.57,101.74 26.6,37.77 16.84,28.01 Z" fill="#82AEC0"/>
  <path d="M28.01,16.84 C18.25,7.08 3.55,3.55 3.55,3.55 L96.16,96.16 L101.75,90.57 C101.75,90.57 37.77,26.6 28.01,16.84 Z" fill="#C9E3E6"/>
  <path d="M98.09,98.08 L102.47,93.7 L117.4,110.88 L115.81,115.81 L110.88,117.4 L93.7,102.47 Z" fill="#874D36"/>
  <path d="M98.09,98.08 L102.48,93.69 L117.41,110.87 C117.41,110.87 118.84,112.77 115.82,115.79 C112.8,118.81 110.9,117.38 110.9,117.38 L93.7,102.47 L98.09,98.08 Z" fill="#693928"/>
  <path d="M111.41,113.63 C111.17,113.78 110.26,114.22 109.14,113.26 C108.51,112.72 108.44,112.12 109.15,111.69 C110.71,110.74 112.71,108.25 113.57,106.52 L115.66,108.93 C114.57,110.77 113.2,112.54 111.41,113.63 Z" fill="#A65F3E"/>
  <path d="M107.06,108.4 C106.82,108.55 105.71,109.13 104.87,108.63 C103.68,107.92 103.89,107.02 104.6,106.59 C106.16,105.64 108.39,103.31 109.37,101.67 L111.42,104.03 C110.16,105.83 108.8,107.34 107.06,108.4 Z" fill="#A65F3E"/>
  <path d="M101.66,104.59 C101.42,104.74 100.47,104.99 99.51,104.32 C98.89,103.88 98.68,102.89 99.39,102.46 C101.18,101.38 103.8,98.63 105.01,96.68 L107.05,99.03 C105.55,101.21 103.34,103.56 101.66,104.59 Z" fill="#A65F3E"/>
  <path d="M110.48,120.5 L110.88,117.4 C110.88,117.4 112.43,117.41 114.92,114.92 C117.41,112.43 117.4,110.88 117.4,110.88 L120.5,110.48 C122.78,110.08 124.74,112.12 124.42,114.39 C124.11,116.52 122.92,118.93 120.93,120.93 C118.94,122.92 116.53,124.11 114.39,124.42 C112.13,124.74 110.19,122.77 110.48,120.5 Z" fill="#9E740B"/>
  <path d="M78.37,112.24 L88.87,99.4 L94.14,94.13 L99.41,88.86 L112.25,78.36 C112.87,77.84 113.78,77.88 114.36,78.45 C114.94,79.03 114.97,79.97 114.42,80.59 C111.64,83.69 106.04,90.18 103.53,92.85 C101.77,94.73 99.93,96.6 98.27,98.25 C96.62,99.9 94.74,101.74 92.87,103.51 C90.2,106.02 83.71,111.62 80.61,114.4 C79.99,114.95 79.06,114.92 78.47,114.34 C77.88,113.77 77.85,112.86 78.37,112.24 Z" fill="#9E740B"/>
  <path d="M111.16,28.01 C120.92,18.25 124.45,3.55 124.45,3.55 L31.84,96.16 L37.43,101.75 C37.43,101.74 101.4,37.77 111.16,28.01 Z" fill="#82AEC0"/>
  <path d="M99.99,16.84 C109.75,7.08 124.45,3.55 124.45,3.55 L31.84,96.16 L26.25,90.57 C26.25,90.57 90.23,26.6 99.99,16.84 Z" fill="#C9E3E6"/>
  <path d="M29.91,98.08 L25.53,93.7 L10.6,110.88 L12.19,115.81 L17.12,117.4 L34.3,102.47 Z" fill="#874D36"/>
  <path d="M29.91,98.08 L25.52,93.69 L10.6,110.88 C10.6,110.88 9.06,112.67 12.19,115.8 C15.32,118.93 17.11,117.39 17.11,117.39 L34.29,102.46 L29.91,98.08 Z" fill="#693928"/>
  <path d="M17.52,120.5 L17.12,117.4 C17.12,117.4 15.57,117.41 13.08,114.92 C10.59,112.43 10.6,110.88 10.6,110.88 L7.5,110.48 C5.23,110.19 3.26,112.12 3.58,114.39 C3.89,116.52 5.08,118.93 7.07,120.93 C9.06,122.92 11.47,124.11 13.61,124.42 C15.87,124.74 17.81,122.77 17.52,120.5 Z" fill="#9E740B"/>
  <path d="M49.63,112.24 L39.13,99.4 L33.86,94.13 L28.59,88.86 L15.75,78.36 C15.13,77.84 14.22,77.88 13.64,78.45 C13.06,79.03 13.03,79.97 13.58,80.59 C16.36,83.69 21.96,90.18 24.47,92.85 C26.23,94.73 28.07,96.6 29.73,98.25 C31.38,99.9 33.26,101.74 35.13,103.51 C37.8,106.02 44.29,111.62 47.39,114.4 C48.01,114.95 48.94,114.92 49.53,114.34 C50.12,113.77 50.15,112.86 49.63,112.24 Z" fill="#9E740B"/>
  <path d="M5.1,113.86 C5.36,114.88 6.05,116.71 7.96,118.22 C9.96,119.8 11.12,118.6 10.22,116.78 C9.49,115.32 8.94,114.59 7.85,112.65 C6.82,110.82 4.61,111.9 5.1,113.86 Z" fill="#E2A610"/>
  <path d="M17.47,82.68 C16.61,81.67 17.96,81.32 19.98,83.04 C22,84.76 30.5,92.02 30.5,92.02 C33.23,94.5 31.85,97.06 31.85,97.06 C29.64,95.31 18.33,83.69 17.47,82.68 Z" fill="#E2A610"/>
  <path d="M16.55,113.63 C16.79,113.78 17.7,114.22 18.82,113.26 C19.45,112.72 19.52,112.12 18.81,111.69 C17.25,110.74 15.25,108.25 14.39,106.52 L12.3,108.93 C13.4,110.77 14.76,112.54 16.55,113.63 Z" fill="#A65F3E"/>
  <path d="M20.91,108.4 C21.15,108.55 22.26,109.13 23.1,108.63 C24.29,107.92 24.08,107.02 23.37,106.59 C21.81,105.64 19.58,103.31 18.6,101.67 L16.55,104.03 C17.8,105.83 19.17,107.34 20.91,108.4 Z" fill="#A65F3E"/>
  <path d="M26.3,104.59 C26.54,104.74 27.49,104.99 28.45,104.32 C29.07,103.88 29.28,102.89 28.57,102.46 C26.78,101.38 24.16,98.63 22.95,96.68 L20.91,99.03 C22.41,101.21 24.62,103.56 26.3,104.59 Z" fill="#A65F3E"/>
  <path d="M64,75.17 L69.57,80.75 L78.93,67.76 L75.17,64 Z" fill="#2F7889"/>
  <path d="M102.26,87.83 C100.38,89.39 103.73,89.9 106.07,87.54 L110.77,82.87 C111.94,81.68 111.94,79.64 109.77,81.34 L102.26,87.83 Z" fill="#E2A610"/>
  <path d="M118.75,114.94 C118.08,115.98 118.37,117.01 119.46,117.02 C120.24,117.03 121.08,116.45 121.47,116.06 C122.04,115.49 122.45,115.03 122.73,113.86 C123.1,112.29 121.4,110.71 120.4,112.22 C119.51,113.56 119.42,113.91 118.75,114.94 Z" fill="#E2A610"/>
</svg>
